dist/images/mail.svg

<svg width="26" height="20" viewBox="0 0 26 20" fill="none" xmlns="http://www.w3.org/2000/svg">
<path d="M24.0294 0C24.8415 0 25.4999 0.658399 25.4999 1.47057V18.3824C25.4999 19.1945 24.8415 19.8529 24.0294 19.8529V0Z" fill="white"/>
<path d="M0.5 7.60736C0.5 7.20127 0.829202 6.87207 1.23529 6.87207C1.64139 6.87207 1.97059 7.20127 1.97059 7.60736V19.8528C1.1584 19.8528 0.5 19.1944 0.5 18.3822V7.60736Z" fill="white"/>
<path d="M0.5 1.47059C0.5 0.658406 1.1584 0 1.97059 0V3.81787C1.1584 3.81787 0.5 3.15947 0.5 2.34728V1.47059Z" fill="white"/>
<rect width="22.0588" height="1.52715" transform="matrix(-1 0 0 1 24.0294 18.3257)" fill="white"/>
<path d="M24.0294 3.0541L23.6893 3.27483C16.7962 7.74873 7.86792 7.55083 1.1798 2.7759L0.499947 2.29053C0.499947 3.24887 0.962881 4.14818 1.74284 4.70503L3.72679 6.12146C8.87817 9.79924 15.7549 9.95167 21.0642 6.50574L24.0294 4.58125V3.0541Z" fill="white"/>
<rect width="22.0588" height="1.52715" transform="matrix(-1 0 0 1 24.0294 0)" fill="white"/>
<path d="M11.5294 9.92665L24.0294 2.20605V3.67664L12.7805 10.6244C12.2341 10.9619 11.5294 10.5689 11.5294 9.92665Z" fill="white"/>
<path d="M13 9.92665L0.5 2.20605C0.5 3.12017 0.973448 3.96907 1.75117 4.44943L11.7488 10.6244C12.2952 10.9619 13 10.5689 13 9.92665Z" fill="white"/>
</svg>

<svg width="26" height="20" fill="none" xmlns="http://www.w3.org/2000/svg"><path d="M24.03 0c.811 0 1.47.658 1.47 1.47v16.912a1.47 1.47 0 01-1.47 1.47V0zM.5 7.607a.735.735 0 011.47 0v12.246a1.47 1.47 0 01-1.47-1.47V7.606zm0-6.137C.5.659 1.158 0 1.97 0v3.818A1.47 1.47 0 01.5 2.348V1.47zm23.53 16.856H1.97v1.527h22.06z" fill="#fff"/><path d="M24.03 3.054l-.34.22a20 20 0 01-22.51-.498L.5 2.29c0 .958.463 1.857 1.243 2.414L3.727 6.12a15.405 15.405 0 0017.337.385L24.03 4.58V3.054zm0-3.054H1.97v1.527h22.06z" fill="#fff"/><path d="M11.53 9.927l12.5-7.721v1.47l-11.25 6.948a.82.82 0 01-1.25-.697z" fill="#fff"/><path d="M13 9.927L.5 2.206c0 .914.473 1.763 1.251 2.243l9.998 6.175A.82.82 0 0013 9.927z" fill="#fff"/></svg>
